tools/download-figma-icons/icons/outlined-medium/eye.svg

<svg width="24" height="24" viewBox="0 0 24 24" fill="none" xmlns="http://www.w3.org/2000/svg">
<path fill-rule="evenodd" clip-rule="evenodd" d="M12.0001 17.4538C7.88031 17.4538 4.29081 13.4503 3.19956 12.1018C4.29081 10.7533 7.88031 6.74976 12.0001 6.74976C16.1206 6.74976 19.7101 10.7533 20.8013 12.1018C19.7101 13.4503 16.1206 17.4538 12.0001 17.4538ZM1.64031 12.5383C1.82781 12.8 6.29556 18.9538 12.0001 18.9538C17.7053 18.9538 22.1731 12.8 22.3606 12.5383C22.5473 12.2773 22.5473 11.9263 22.3606 11.6653C22.1731 11.4035 17.7053 5.24976 12.0001 5.24976C6.29556 5.24976 1.82781 11.4035 1.64031 11.6653C1.45356 11.9263 1.45356 12.2773 1.64031 12.5383ZM9.75036 12.1018C9.75036 10.8613 10.7599 9.85177 12.0004 9.85177C13.2409 9.85177 14.2504 10.8613 14.2504 12.1018C14.2504 13.3423 13.2409 14.3518 12.0004 14.3518C10.7599 14.3518 9.75036 13.3423 9.75036 12.1018ZM8.25036 12.1018C8.25036 14.1695 9.93261 15.8518 12.0004 15.8518C14.0681 15.8518 15.7504 14.1695 15.7504 12.1018C15.7504 10.034 14.0681 8.35177 12.0004 8.35177C9.93261 8.35177 8.25036 10.034 8.25036 12.1018Z" fill="black"/>
</svg>

<svg xmlns="http://www.w3.org/2000/svg" width="24" height="24" fill="none" viewBox="0 0 24 24"><path fill="currentColor" fill-rule="evenodd" d="M12 17.454c-4.12 0-7.71-4.004-8.8-5.352C4.29 10.753 7.88 6.75 12 6.75s7.71 4.003 8.801 5.352c-1.09 1.348-4.68 5.352-8.8 5.352M1.64 12.538c.188.262 4.656 6.416 10.36 6.416 5.705 0 10.173-6.154 10.36-6.416a.75.75 0 0 0 0-.873C22.174 11.404 17.706 5.25 12 5.25S1.828 11.403 1.64 11.665a.75.75 0 0 0 0 .873m8.11-.436c0-1.24 1.01-2.25 2.25-2.25s2.25 1.01 2.25 2.25-1.01 2.25-2.25 2.25-2.25-1.01-2.25-2.25m-1.5 0a3.754 3.754 0 0 0 3.75 3.75 3.754 3.754 0 0 0 3.75-3.75A3.754 3.754 0 0 0 12 8.352a3.754 3.754 0 0 0-3.75 3.75" clip-rule="evenodd"/></svg>
